X: 8623
T: Crooked Road To Dublin, The
R: reel
M: 4/4
K: Gmajor
G2 BG FGAF|(3GGG Ac BdcA|GBAG FGAg|fdcA dBcA|
GBAG FGAF|GBAc BdcA|GBAG FGAg|fdcA d2 Bc|
d~g3 fgaf|d~g3 agfe|d~g3 fgag|fdcA dBcA|
d~g3 fgaf|d~g3 afga|bgaf gbag|fdcA BGAF|

